X: 17
T: Sporting Paddy
Z: Erik-Fiddler
S: https://thesession.org/tunes/430#setting50487
R: reel
M: 4/4
L: 1/8
K: Gmix
|:DG {A}~(3G/F/G/G FGAF| DG (3G/G/G/G FDCF | DGGD E/F/G Ac |1dcfc d2 AF:|2dcfc d2 de||
fd {e}~(3d/c/d/d fdcd | fd (3d/d/d/d g2 ag | fd d/d/d fdcA| cdec d2 de|
fd {e}~(3d/c/d/d fdcd | fd (3d/d/d/d g2 fg | af g a2 g fd |cdfd cAFD||[G,4G4]z4||

